X: 39435
T: Tarantella
R: jig
M: 6/8
K: Aminor
|:"Am" a2 a e2 e|a2 a e2 e|ede "F" f2 f|fgf "C" e2 e|
efe "G" d2 d|ded "Am" c2 c|cdc "Em" B2 B|BcB "Am" A3:|
|:A2 B cBc|"F" dcB "Am" c2 c|ABc "G" B2 B|"Em" dcB "Am" A2 A|
A2 B cBc|"F" dcB "Am" c2 c|ABc "G" B2 B|"Em" dcB "Am" A3:|

